packages/calcite-ui-icons/icons/crosshair-16.svg

<?xml version="1.0" encoding="UTF-8"?><svg id="icons" xmlns="http://www.w3.org/2000/svg" viewBox="0 0 16 16"><rect x="0" width="16" height="16" style="fill:none;"/><path d="M12,8h4v1h-4v-1ZM1,9h4v-1H1v1ZM8,12v4h1v-4h-1ZM8,1v4h1V1h-1ZM9,8h-1v1h1v-1Z"/></svg>

<svg xmlns="http://www.w3.org/2000/svg" viewBox="0 0 16 16"><path fill="none" d="M0 0h16v16H0z"/><path d="M12 8h4v1h-4V8zM1 9h4V8H1v1zm7 3v4h1v-4H8zM8 1v4h1V1H8zm1 7H8v1h1V8z"/></svg>
